img/board.svg

<svg width="249" height="67" viewBox="0 0 249 67" fill="none" xmlns="http://www.w3.org/2000/svg">
<g clip-path="url(#clip0_24_1402)">
<mask id="mask0_24_1402" style="mask-type:luminance" maskUnits="userSpaceOnUse" x="-38" y="-70" width="306" height="411">
<path d="M267.7 -70H-38V340.6H267.7V-70Z" fill="white"/>
</mask>
<g mask="url(#mask0_24_1402)">
<path d="M237.6 4.00002C237.8 13.4 237.9 24 238.1 33.4C234.9 33.8 231.7 34.7 228.8 36.2C230.6 36.2 233.5 33.1 235.3 33.1C236.8 33.1 236.8 34.6 238.5 36.2C238.8 39.2 238.6 42.8 238.1 45.7C210.3 47.6 182.5 49.6 154.9 52.9C107.2 58.6 59.6 68.1 11.6 65.5C10.2 64.6 9.3 64.2 8.4 62.7C7.9 61.9 9.8 56.5 9.7 55.5C11.7 54.6 13.8 53.7 15.8 52.8C14.1881 51.702 12.2409 51.206 10.3 51.4C10.3 47.3 9.29999 42.8 9.29999 38.7C9.29999 38 9.29999 37.3 9.59999 36.7C9.89999 36.1 10.4 35.7 11 35.4C14.6 33.2 19 33.1 23.1 33C18.8 32 14.6 31 10.3 29.9C10.3 28 10.3 26.1 10.2 24.2C61.7 17.2 112.3 13.8 164.2 9.50002C186.5 7.60002 211.7 3.00002 234.1 1.20002C236 1.00002 236.4 2.50002 237.6 4.00002Z" fill="#506085"/>
<path d="M234.4 0.900024C234.6 10.3 234.7 20.9 234.9 30.3C231.7 30.7 228.5 31.6 225.6 33.1C228.8 33.2 232.1 33.1 235.3 33C235.6 36 235.4 39.6 234.9 42.5C207.1 44.4 179.3 46.4 151.7 49.7C104 55.4 56.4 64.9 8.40001 62.3C7.80001 59.2 6.90001 55.4 6.50001 52.3C8.50001 51.4 10.6 50.5 12.6 49.6C10.9881 48.502 9.04091 48.006 7.10001 48.2C7.10001 44.1 6.10001 39.6 6.10001 35.5C6.10001 34.8 6.10001 34.1 6.40001 33.5C6.70001 32.9 7.20001 32.5 7.80001 32.2C11.4 30 15.8 29.9 19.9 29.8C15.6 28.8 11.4 27.8 7.10001 26.7C7.10001 24.8 7.10001 22.9 7.00001 21C58.5 14 109.1 10.6 161 6.30003C185.3 4.30003 210.1 2.90002 234.4 0.900024Z" fill="#717C9A"/>
<path opacity="0.49" d="M114.2 48.1C100.6 47.5 87 48.8 73.5 50.4C60.7 51.9 47.9 53.7 35.1 55.9C26.1 57.5 17.2 58.7 8.30002 59.2C8.40002 59.7 8.60002 60.1 8.70002 60.6C16.2 60.2 23.7 59 31 57.8C44 55.7 57 53.9 70.1 52.3C83.2 50.7 96.5 49.5 109.7 49.6C118 49.7 126.2 50.9 134.3 52.3C136.5 52.2 138.8 52 141 51.8C132.2 50 123.2 48.5 114.2 48.1Z" fill="#506085"/>
<path opacity="0.49" d="M149.1 40.6001C131.5 41.2001 113.9 41.6001 96.4 43.9001C78.6 46.3001 60.9 49.2001 43 50.8001C35.4 51.5001 27.8 52.1001 20.3 53.3001C16.1 54.0001 11.5 54.9001 7.10001 55.1001C7.20001 55.4001 7.20001 55.7001 7.30001 56.0001C9.30001 56.0001 11.4 55.8001 13.4 55.6001C20.8 54.8001 28.1 53.5001 35.6 52.9001C52.7 51.5001 69.6 49.3001 86.5 47.0001C105 44.5001 123.2 43.3001 141.9 42.6001C155.9 42.1001 169.2 42.5001 182.4 46.4001C183.7 46.4001 185.1 46.3001 186.4 46.2001C174.8 41.4001 161.4 40.2001 149.1 40.6001ZM191 48.2001C190.1 47.7001 189.2 47.3001 188.3 46.9001C187.2 47.0001 186.1 47.1001 185.1 47.2001C187 47.8001 188.8 48.5001 190.7 49.3001C191.9 49.9001 191.9 48.7001 191 48.2001Z" fill="#506085"/>
<path opacity="0.49" d="M186.9 33C167.1 31.4 147.4 32.1 127.7 34.2C106.9 36.4 86.3 40.1 65.6 43C54.9 44.5 44.1 45.5 33.4 46.8C25.8 47.7 18.3 49.2 10.7 49.3C10.6 49.6 10.6 49.9 10.4 50.2C15.7 50.3 21.1 49.6 26.5 48.9C36.3 47.6 46.1 46.8 55.9 45.6C76.8 43 97.6 39.4 118.5 36.9C154.5 32.5 192.1 31 226.6 42.7H231.9C217.8 36.6 201.9 34.3 186.9 33Z" fill="#506085"/>
<path opacity="0.49" d="M234.9 26.9C224.4 23.7 214 20.7 202.9 20.2C188 19.4 173.1 21 158.4 22.7C126.9 26.4 95.9 32.8 64.5 36.8C57.3 37.7 50.1 38.4 43 39.5C37.8 40.3 32.6 42.2 27.3 42.2C25.6 42.2 24.1 42.2 22.8 40.9C21 39.1 21.3 39.4 23.5 38.1C25.9 36.7 29.2 36.4 31.9 36C37.9 35.3 43.9 35.5 49.9 35.4C63.8 35.2 78.1 33.1 91.8 31.1C107.5 28.9 123 25.4 138.4 21.7C155.1 17.7 171.7 13.2 188.5 9.40005C203.9 5.90005 219.1 4.90005 234.6 4.40005C234.4 3.90005 234.3 3.30005 234.1 2.80005C227 2.80005 220 3.00004 212.9 3.60004C202.3 4.50004 191.8 6.80004 181.5 9.20004C161.2 14.1 141.1 19.5 120.7 24C100.2 28.5 79.7 31.4 58.9 33.5C51 34.3 43.2 33.9 35.3 34.4C29.8 34.7 23.9 35.4 19.3 38.7C19.1 38.8 19.2 39.1 19.3 39.3C22.8 46.5 33.8 42.6 39.6 41.4C55.2 38.2 71.4 37.3 87.1 34.8C121.1 29.5 155.3 22.4 189.7 21.2C199.1 20.9 208.6 21.2 217.8 23.2C223.6 24.4 229.2 26.2 234.9 27.9V26.9ZM158.9 6.60004C152.3 11.9 140.8 13.1 133.4 14.9C116.5 18.8 99.3 20.7 82.1 22.7C65.9 24.6 49.7 26.6 33.6 29.1C24.7 30.5 15.5 31.8 7.40002 35.7C7.60002 36.2 7.80002 36.6 8.00002 37.1C18.9 31.5 32.1 30.5 44 28.8C61.2 26.3 78.5 24.3 95.7 22.3C110.9 20.5 125.8 17.8 140.6 14.2C146 12.9 155.1 11.3 159.9 6.90005C159.6 6.80005 159.3 6.70004 158.9 6.60004ZM73.4 13.8C61 17.3 48.7 20.4 35.7 21.8C27.5 22.6 19.5 24.1 11.5 25.8C11.4 26.2 11.2 26.7 11.1 27.1C12 26.9 13 26.8 13.9 26.6C23.6 24.6 33.3 23.6 43 22.4C56.2 20.7 69.4 17.5 82.1 13.2C79.1 13.3 76.3 13.3 73.4 13.8Z" fill="#506085"/>
</g>
</g>
<defs>
<clipPath id="clip0_24_1402">
<rect width="249" height="67" fill="white"/>
</clipPath>
</defs>
</svg>

<svg width="249" height="67" fill="none" xmlns="http://www.w3.org/2000/svg">
  <path d="M237.6 4.00002C237.8 13.4 237.9 24 238.1 33.4c-3.2.4-6.4 1.3-9.3 2.8 1.8 0 4.7-3.1 6.5-3.1 1.5 0 1.5 1.5 3.2 3.1.3 3 .1 6.6-.4 9.5-27.8 1.9-55.6 3.9-83.2 7.2-47.7 5.7-95.3 15.2-143.3 12.6-1.4-.9-2.3-1.3-3.2-2.8-.5-.8 1.4-6.2 1.3-7.2 2-.9 4.1-1.8 6.1-2.7-1.6119-1.098-3.5591-1.594-5.5-1.4 0-4.1-1.00001-8.6-1.00001-12.7 0-.7 0-1.4.3-2 .3-.6.80001-1 1.40001-1.3 3.6-2.2 8-2.3 12.1-2.4-4.3-1-8.5-2-12.8-3.1 0-1.9 0-3.8-.1-5.7 51.5-7 102.1-10.4 154-14.69998 22.3-1.9 47.5-6.5 69.9-8.3 1.9-.2 2.3 1.3 3.5 2.8Z" fill="#506085"/>
  <path d="M234.4.900024C234.6 10.3 234.7 20.9 234.9 30.3c-3.2.4-6.4 1.3-9.3 2.8 3.2.1 6.5 0 9.7-.1.3 3 .1 6.6-.4 9.5-27.8 1.9-55.6 3.9-83.2 7.2C104 55.4 56.4 64.9 8.40001 62.3c-.6-3.1-1.5-6.9-1.9-10 2-.9 4.09999-1.8 6.09999-2.7-1.6119-1.098-3.55909-1.594-5.49999-1.4 0-4.1-1-8.6-1-12.7 0-.7 0-1.4.3-2 .3-.6.8-1 1.4-1.3C11.4 30 15.8 29.9 19.9 29.8c-4.3-1-8.5-2-12.79999-3.1 0-1.9 0-3.8-.1-5.7C58.5 14 109.1 10.6 161 6.30003c24.3-2 49.1-3.40001 73.4-5.400006Z" fill="#717C9A"/>
  <path opacity=".49" d="M114.2 48.1c-13.6-.6-27.2.7-40.7 2.3-12.8 1.5-25.6 3.3-38.4 5.5-9 1.6-17.9 2.8-26.79998 3.3.1.5.3.9.4 1.4C16.2 60.2 23.7 59 31 57.8c13-2.1 26-3.9 39.1-5.5 13.1-1.6 26.4-2.8 39.6-2.7 8.3.1 16.5 1.3 24.6 2.7 2.2-.1 4.5-.3 6.7-.5-8.8-1.8-17.8-3.3-26.8-3.7Z" fill="#506085"/>
  <path opacity=".49" d="M149.1 40.6001c-17.6.6-35.2 1-52.7 3.3-17.8 2.4-35.5 5.3-53.4 6.9-7.6.7-15.2 1.3-22.7 2.5-4.2.7-8.8 1.6-13.19999 1.8.1.3.1.6.2.9 2 0 4.09999-.2 6.09999-.4 7.4-.8 14.7-2.1 22.2-2.7 17.1-1.4 34-3.6 50.9-5.9 18.5-2.5 36.7-3.7 55.4-4.4 14-.5 27.3-.1 40.5 3.8 1.3 0 2.7-.1 4-.2-11.6-4.8-25-6-37.3-5.6Zm41.9 7.6c-.9-.5-1.8-.9-2.7-1.3-1.1.1-2.2.2-3.2.3 1.9.6 3.7 1.3 5.6 2.1 1.2.6 1.2-.6.3-1.1Z" fill="#506085"/>
  <path opacity=".49" d="M186.9 33c-19.8-1.6-39.5-.9-59.2 1.2-20.8 2.2-41.4 5.9-62.1 8.8-10.7 1.5-21.5 2.5-32.2 3.8-7.6.9-15.1 2.4-22.7 2.5-.1.3-.1.6-.3.9 5.3.1 10.7-.6 16.1-1.3 9.8-1.3 19.6-2.1 29.4-3.3 20.9-2.6 41.7-6.2 62.6-8.7 36-4.4 73.6-5.9 108.1 5.8h5.3c-14.1-6.1-30-8.4-45-9.7Z" fill="#506085"/>
  <path opacity=".49" d="M234.9 26.9c-10.5-3.2-20.9-6.2-32-6.7-14.9-.8-29.8.8-44.5 2.5-31.5 3.7-62.5 10.1-93.9 14.1-7.2.9-14.4 1.6-21.5 2.7-5.2.8-10.4 2.7-15.7 2.7-1.7 0-3.2 0-4.5-1.3-1.8-1.8-1.5-1.5.7-2.8 2.4-1.4 5.7-1.7 8.4-2.1 6-.7 12-.5 18-.6 13.9-.2 28.2-2.3 41.9-4.3 15.7-2.2 31.2-5.7 46.6-9.4 16.7-4 33.3-8.5 50.1-12.29995 15.4-3.5 30.6-4.5 46.1-5-.2-.5-.3-1.1-.5-1.6-7.1 0-14.1.19999-21.2.79999-10.6.9-21.1 3.2-31.4 5.6C161.2 14.1 141.1 19.5 120.7 24c-20.5 4.5-41 7.4-61.8 9.5-7.9.8-15.7.4-23.6.9-5.5.3-11.4 1-16 4.3-.2.1-.1.4 0 .6 3.5 7.2 14.5 3.3 20.3 2.1 15.6-3.2 31.8-4.1 47.5-6.6 34-5.3 68.2-12.4 102.6-13.6 9.4-.3 18.9 0 28.1 2 5.8 1.2 11.4 3 17.1 4.7v-1Zm-76-20.29996C152.3 11.9 140.8 13.1 133.4 14.9c-16.9 3.9-34.1 5.8-51.3 7.8-16.2 1.9-32.4 3.9-48.5 6.4-8.9 1.4-18.1 2.7-26.19998 6.6.2.5.4.9.6 1.4C18.9 31.5 32.1 30.5 44 28.8c17.2-2.5 34.5-4.5 51.7-6.5 15.2-1.8 30.1-4.5 44.9-8.1 5.4-1.3 14.5-2.9 19.3-7.29995-.3-.1-.6-.20001-1-.30001ZM73.4 13.8c-12.4 3.5-24.7 6.6-37.7 8-8.2.8-16.2 2.3-24.2 4-.1.4-.3.9-.4 1.3.9-.2 1.9-.3 2.8-.5 9.7-2 19.4-3 29.1-4.2 13.2-1.7 26.4-4.9 39.1-9.2-3 .1-5.8.1-8.7.6Z" fill="#506085"/>
</svg>
